src/assets/logos/v2/aquafunded.svg

<svg width="518" height="58" viewBox="0 0 518 58" fill="none" xmlns="http://www.w3.org/2000/svg">
<path d="M20.4769 0.894852L0 46.7517H13.3929L16.9885 37.852H36.7479L40.3435 46.7517H54.0168L33.4244 0.894852H20.4769ZM20.9222 28.3016L26.8434 13.6668L32.8224 28.3016H20.9222ZM94.8056 48.6065C93.8077 48.6065 92.9253 48.3868 92.0346 48.0045C91.1522 47.6221 90.2616 46.9632 89.4369 46.0358C89.3792 46.0358 89.3792 45.9789 89.3792 45.9789C89.4369 45.9789 89.5441 45.9219 89.6595 45.9219C92.7604 44.718 95.4736 43.0828 97.7992 40.9515C100.067 38.7713 101.898 36.2576 103.226 33.3615C104.496 30.4655 105.164 27.301 105.164 23.8111C105.164 20.37 104.496 17.2055 103.226 14.3094C101.898 11.4134 100.067 8.85086 97.7992 6.7195C95.4736 4.58813 92.7604 2.95302 89.6595 1.74904C86.501 0.545063 83.0703 0 79.3098 0C75.5987 0 72.168 0.545063 69.0177 1.74904C65.8592 2.95302 63.1542 4.58813 60.8286 6.7683C58.503 8.89967 56.6805 11.4052 55.4022 14.3013C54.1322 17.1973 53.4642 20.3618 53.4642 23.8029C53.4642 27.2928 54.1322 30.4655 55.4022 33.3046C56.6722 36.2006 58.503 38.7062 60.8286 40.8945C63.1542 43.0259 65.8674 44.718 69.0177 45.9138C70.6753 46.5158 72.4484 46.9551 74.2792 47.2235C75.8873 48.8587 77.38 50.2823 78.7078 51.4781C80.4808 53.0075 82.1962 54.2603 83.8538 55.1877C85.5114 56.1151 87.2267 56.774 88.9421 57.2051C90.6574 57.5875 92.5377 57.8071 94.5334 57.8071C99.9598 57.8071 104.331 55.8954 107.539 52.0232L101.84 45.3606C99.7372 47.5164 97.3538 48.6065 94.8056 48.6065ZM88.2741 33.3778C87.1113 34.5248 85.7835 35.3953 84.2909 35.9973C82.7405 36.6562 81.0828 36.9247 79.3098 36.9247C77.5367 36.9247 75.8791 36.6481 74.3864 35.9973C72.836 35.3953 71.5083 34.5248 70.4032 33.3778C69.2404 32.2308 68.358 30.8153 67.7477 29.229C67.0797 27.5939 66.7498 25.7879 66.7498 23.8273C66.7498 21.8587 67.0797 20.0609 67.7477 18.4257C68.358 16.8394 69.2404 15.4809 70.4032 14.3338C71.5083 13.1868 72.836 12.2594 74.3864 11.6574C75.8791 11.0554 77.545 10.73 79.3098 10.73C81.0828 10.73 82.7405 11.0554 84.2909 11.6574C85.7835 12.2594 87.1113 13.1868 88.2741 14.3338C89.3792 15.4809 90.2698 16.8476 90.9296 18.4257C91.5398 20.0609 91.8697 21.8668 91.8697 23.8273C91.8697 25.796 91.5398 27.5939 90.9296 29.229C90.2698 30.8072 89.3874 32.2308 88.2741 33.3778ZM142.415 0.911138H155.362V26.3248C155.362 33.1419 153.441 38.4052 149.581 42.1148C145.722 45.8243 140.369 47.6791 133.508 47.6791C126.647 47.6791 121.286 45.8243 117.435 42.1148C113.584 38.4052 111.654 33.1338 111.654 26.3248V0.911138H124.808V25.9343C124.808 29.8635 125.599 32.6782 127.166 34.3866C128.733 36.0868 130.894 36.9409 133.64 36.9409C136.386 36.9409 138.53 36.0868 140.081 34.3866C141.623 32.6782 142.406 29.8635 142.406 25.9343V0.911138H142.415ZM218.706 26.1133C218.549 26.1946 218.384 26.2678 218.228 26.3492C214.211 28.3016 210.682 30.0506 203.623 30.2377L190.444 0.894852H177.497L156.962 46.7517H170.355L176.144 32.5399C180.061 35.2977 185.851 37.9415 194.172 39.0235L197.305 46.7517H211.028L207.663 39.2594C212.323 38.7632 215.787 37.6568 218.698 36.3877V46.7598H231.851V31.1082C235.653 30.3353 240.61 30.0669 247.941 30.7665V21.4275C241.121 20.8337 235.991 21.0533 231.851 21.6878V10.9253H255.165V0.911138H218.706V26.1133ZM179.781 23.624L183.863 13.6098L190.032 28.8222C184.894 27.4474 181.694 25.3567 179.781 23.624ZM292.119 0.911138H305.067V26.3248C305.067 33.1419 303.145 38.4052 299.286 42.1148C295.434 45.8243 290.074 47.6791 283.213 47.6791C276.351 47.6791 270.991 45.8243 267.14 42.1148C263.288 38.4052 261.359 33.1338 261.359 26.3248V0.911138H274.512V25.9343C274.512 29.8635 275.304 32.6782 276.871 34.3866C278.438 36.0868 280.598 36.9409 283.345 36.9409C286.091 36.9409 288.235 36.0868 289.785 34.3866C291.328 32.6782 292.111 29.8635 292.111 25.9343V0.911138H292.119ZM345.905 0.911138H358.787V46.768H347.959L327.44 22.3305V46.768H314.559V0.911138H325.387L345.905 25.3486V0.911138ZM404.21 3.72583C400.309 1.84665 395.798 0.911138 390.661 0.911138H368.683V46.768H390.661C395.798 46.768 400.318 45.8324 404.21 43.9533C408.103 42.0741 411.154 39.4221 413.348 35.9973C415.533 32.5724 416.63 28.5131 416.63 23.8436C416.63 19.1335 415.533 15.066 413.348 11.6574C411.154 8.24888 408.111 5.59688 404.21 3.72583ZM401.687 30.6201C400.582 32.5236 399.048 33.9635 397.068 34.9479C395.097 35.9322 392.788 36.4284 390.125 36.4284H381.82V11.2669H390.125C392.78 11.2669 395.097 11.755 397.068 12.7475C399.039 13.7318 400.573 15.1555 401.687 17.0346C402.792 18.9138 403.344 21.1916 403.344 23.8518C403.344 26.4549 402.792 28.7165 401.687 30.6201ZM436.892 36.7457H461.196V46.768H423.871V0.911138H460.33V10.9334H436.892V18.6616H457.542V28.3504H436.892V36.7457ZM513.992 11.6493C511.798 8.24074 508.755 5.59687 504.855 3.71769C500.954 1.83851 496.443 0.902995 491.305 0.902995H469.327V46.7598H491.305C496.443 46.7598 500.962 45.8243 504.855 43.9451C508.755 42.066 511.798 39.414 513.992 35.9891C516.177 32.5643 517.274 28.505 517.274 23.8355C517.282 19.1253 516.186 15.0578 513.992 11.6493ZM502.339 30.6201C501.234 32.5236 499.7 33.9635 497.721 34.9479C495.75 35.9322 493.441 36.4284 490.777 36.4284H482.473V11.2669H490.777C493.433 11.2669 495.75 11.755 497.721 12.7475C499.692 13.7318 501.226 15.1555 502.339 17.0346C503.444 18.9138 503.997 21.1916 503.997 23.8518C503.997 26.4549 503.444 28.7165 502.339 30.6201Z" fill="#007AFF"/>
</svg>

<svg xmlns="http://www.w3.org/2000/svg" width="518" height="58" fill="none" viewBox="0 0 518 58"><path fill="#007aff" d="M20.477.895 0 46.752h13.393l3.595-8.9h19.76l3.596 8.9h13.673L33.424.895zm.445 27.407 5.921-14.635 5.98 14.635zm73.884 20.304c-.998 0-1.88-.22-2.771-.602-.883-.382-1.773-1.04-2.598-1.968-.058 0-.058-.057-.058-.057.058 0 .165-.057.28-.057 3.101-1.204 5.815-2.84 8.14-4.97 2.268-2.18 4.099-4.694 5.427-7.59 1.27-2.897 1.938-6.061 1.938-9.55 0-3.442-.668-6.607-1.938-9.503a24.2 24.2 0 0 0-5.427-7.59c-2.325-2.13-5.039-3.766-8.14-4.97C86.502.545 83.07 0 79.31 0c-3.71 0-7.141.545-10.291 1.749-3.159 1.204-5.864 2.84-8.19 5.02-2.325 2.13-4.148 4.636-5.426 7.532-1.27 2.896-1.938 6.06-1.938 9.502 0 3.49.668 6.662 1.938 9.502 1.27 2.896 3.101 5.401 5.427 7.59 2.325 2.13 5.038 3.823 8.189 5.019a27 27 0 0 0 5.261 1.31 102 102 0 0 0 4.429 4.254c1.773 1.53 3.488 2.782 5.146 3.71a20.8 20.8 0 0 0 5.088 2.017c1.715.383 3.596.602 5.591.602 5.427 0 9.798-1.912 13.006-5.784l-5.699-6.662c-2.103 2.155-4.486 3.246-7.034 3.246m-6.532-15.228a12 12 0 0 1-3.983 2.62c-1.55.658-3.208.927-4.981.927s-3.43-.277-4.924-.928c-1.55-.602-2.878-1.472-3.983-2.62-1.163-1.146-2.045-2.562-2.655-4.148-.668-1.635-.998-3.441-.998-5.402q-.002-2.95.998-5.401c.61-1.587 1.492-2.945 2.655-4.092a11.1 11.1 0 0 1 3.983-2.677c1.493-.602 3.159-.927 4.924-.927 1.773 0 3.43.325 4.98.927 1.493.602 2.821 1.53 3.984 2.677 1.105 1.147 1.996 2.514 2.656 4.092.61 1.635.94 3.44.94 5.401 0 1.969-.33 3.767-.94 5.402-.66 1.578-1.543 3.002-2.656 4.149M142.415.91h12.947v25.414c0 6.817-1.921 12.08-5.781 15.79s-9.212 5.564-16.073 5.564-12.222-1.855-16.073-5.564-5.781-8.981-5.781-15.79V.91h13.154v25.023c0 3.93.791 6.744 2.358 8.453 1.567 1.7 3.728 2.554 6.474 2.554s4.89-.854 6.441-2.554c1.542-1.709 2.325-4.524 2.325-8.453V.911zm76.291 25.202c-.157.082-.322.155-.478.236-4.017 1.953-7.546 3.702-14.605 3.889L190.444.895h-12.947l-20.535 45.857h13.393l5.789-14.212c3.917 2.758 9.707 5.401 18.028 6.483l3.133 7.729h13.723l-3.365-7.493c4.66-.496 8.124-1.602 11.035-2.871V46.76h13.153V31.108c3.802-.773 8.759-1.041 16.09-.341v-9.34c-6.82-.593-11.95-.374-16.09.26V10.926h23.314V.911h-36.459zm-38.925-2.489 4.082-10.014 6.169 15.212c-5.138-1.375-8.338-3.465-10.251-5.198M292.119.911h12.948v25.414c0 6.817-1.922 12.08-5.781 15.79q-5.78 5.565-16.073 5.564-10.295 0-16.073-5.564c-3.852-3.71-5.781-8.981-5.781-15.79V.91h13.153v25.023c0 3.93.792 6.744 2.359 8.453q2.352 2.552 6.474 2.554 4.117-.002 6.44-2.554c1.543-1.709 2.326-4.524 2.326-8.453V.911zm53.786 0h12.882v45.857h-10.828L327.44 22.331v24.437h-12.881V.911h10.828l20.518 24.438zm58.305 2.815C400.309 1.846 395.798.91 390.661.91h-21.978v45.857h21.978c5.137 0 9.657-.936 13.549-2.815 3.893-1.879 6.944-4.53 9.138-7.956 2.185-3.425 3.282-7.484 3.282-12.153 0-4.71-1.097-8.778-3.282-12.187-2.194-3.408-5.237-6.06-9.138-7.931m-2.523 26.894a10.76 10.76 0 0 1-4.619 4.328c-1.971.984-4.28 1.48-6.943 1.48h-8.305v-25.16h8.305c2.655 0 4.972.488 6.943 1.48 1.971.985 3.505 2.409 4.619 4.288 1.105 1.879 1.657 4.157 1.657 6.817 0 2.603-.552 4.865-1.657 6.768m35.205 6.126h24.304v10.022h-37.325V.911h36.459v10.022h-23.438v7.729h20.65v9.688h-20.65zm77.1-25.097c-2.194-3.408-5.237-6.052-9.137-7.931S496.443.903 491.305.903h-21.978V46.76h21.978q7.709.002 13.55-2.815 5.848-2.818 9.137-7.956c2.185-3.425 3.282-7.484 3.282-12.153.008-4.71-1.088-8.778-3.282-12.187M502.339 30.62a10.77 10.77 0 0 1-4.618 4.328c-1.971.984-4.28 1.48-6.944 1.48h-8.304V11.267h8.304c2.656 0 4.973.488 6.944 1.48 1.971.985 3.505 2.409 4.618 4.288 1.105 1.879 1.658 4.157 1.658 6.817 0 2.603-.553 4.865-1.658 6.768"/></svg>
